X:194
T:Nottingham Races THO4.194
M:2/4
L:1/8
Z:vmp. Peter Dunk 2010/11.from a transcription by Fynn Titford-Mock 2007
B:Thompson's Compleat Collection of 200 Favourite Country Dances Volume IV.
Q:1/4=140
K:D
d/e/f/e/ dA|B/c/d/c/ BF|G>FED|[cC][dD][eE][cC]|\
d/e/f/e/ dA|B/c/d/c/ BA|d>cBA|E^G A2:|
|:A/B/c/B/ AB|c/d/e/d/ cd|e>fgf|e/d/c/B/ A2|BGdB|Acde|g>fed|Ac d2:|
|:dcdc|B2 Ad|c>ded|gf e2|dcdc|B2 Ad|cd f/e/d/c/|d2D2:|
